svgs/regular/dial-med-low.svg

<svg xmlns="http://www.w3.org/2000/svg" viewBox="0 0 576 512"><!-- Font Awesome Pro 6.0.0-alpha2 by @fontawesome - https://fontawesome.com License - https://fontawesome.com/license (Commercial License) --><path d="M32 256C14.326 256 0 270.326 0 288C0 305.672 14.326 320 32 320S64 305.672 64 288C64 270.326 49.674 256 32 256ZM84.352 446.393C71.855 458.889 71.855 479.15 84.352 491.648C96.848 504.145 117.109 504.145 129.607 491.648C142.104 479.15 142.104 458.889 129.607 446.393C117.109 433.896 96.848 433.896 84.352 446.393ZM129.607 129.607C142.104 117.111 142.104 96.85 129.607 84.354C117.109 71.855 96.848 71.855 84.352 84.354C71.855 96.85 71.855 117.111 84.352 129.607C96.848 142.105 117.109 142.105 129.607 129.607ZM288 64C305.672 64 320 49.672 320 32C320 14.326 305.672 0 288 0C270.326 0 256 14.326 256 32C256 49.672 270.326 64 288 64ZM446.391 446.393C433.895 458.889 433.895 479.15 446.391 491.648C458.889 504.145 479.15 504.145 491.646 491.648C504.143 479.15 504.143 458.889 491.646 446.393S458.889 433.896 446.391 446.393ZM544 256C526.326 256 512 270.328 512 288C512 305.674 526.326 320 544 320S576 305.674 576 288C576 270.328 561.674 256 544 256ZM446.391 84.354C433.895 96.85 433.895 117.111 446.391 129.607C458.889 142.105 479.15 142.105 491.646 129.607C504.143 117.111 504.143 96.85 491.646 84.354C479.15 71.855 458.889 71.855 446.391 84.354ZM401.138 401.138C463.621 338.654 463.621 237.347 401.136 174.863S237.345 112.379 174.863 174.863C112.377 237.347 112.377 338.654 174.861 401.138S338.652 463.623 401.138 401.138ZM208.802 367.197C170.97 329.365 166.045 271.031 193.765 227.707L271.029 304.97C280.398 314.34 295.601 314.34 304.97 304.97S314.34 280.398 304.97 271.029L227.707 193.765C271.031 166.045 329.363 170.972 367.195 208.802C410.865 252.472 410.865 323.529 367.197 367.197C323.527 410.867 252.47 410.867 208.802 367.197Z"/></svg>

<svg xmlns="http://www.w3.org/2000/svg" viewBox="0 0 576 512"><!--! Font Awesome Pro 6.0.0-alpha3 by @fontawesome - https://fontawesome.com License - https://fontawesome.com/license (Commercial License) --><path d="M32 256C14.33 256 0 270.3 0 288c0 17.67 14.33 32 32 32s32-14.33 32-32C64 270.3 49.67 256 32 256zM84.35 446.4c-12.5 12.5-12.5 32.76 0 45.26c12.5 12.5 32.76 12.5 45.26 0c12.5-12.5 12.5-32.76 0-45.26C117.1 433.9 96.85 433.9 84.35 446.4zM129.6 129.6c12.5-12.5 12.5-32.76 0-45.25c-12.5-12.5-32.76-12.5-45.26 0c-12.5 12.5-12.5 32.76 0 45.25C96.85 142.1 117.1 142.1 129.6 129.6zM288 64c17.67 0 32-14.33 32-32c0-17.67-14.33-32-32-32C270.3 0 256 14.33 256 32C256 49.67 270.3 64 288 64zM446.4 446.4c-12.5 12.5-12.5 32.76 0 45.26c12.5 12.5 32.76 12.5 45.26 0c12.5-12.5 12.5-32.76 0-45.26S458.9 433.9 446.4 446.4zM544 256c-17.67 0-32 14.33-32 32c0 17.67 14.33 32 32 32s32-14.33 32-32C576 270.3 561.7 256 544 256zM446.4 84.35c-12.5 12.5-12.5 32.76 0 45.25c12.5 12.5 32.76 12.5 45.26 0c12.5-12.5 12.5-32.76 0-45.25C479.2 71.86 458.9 71.86 446.4 84.35zM401.1 401.1c62.48-62.48 62.48-163.8-.002-226.3s-163.8-62.48-226.3 0c-62.49 62.48-62.49 163.8-.002 226.3S338.7 463.6 401.1 401.1zM208.8 367.2c-37.83-37.83-42.76-96.17-15.04-139.5l77.26 77.26c9.369 9.369 24.57 9.369 33.94 0s9.369-24.57 0-33.94L227.7 193.8c43.32-27.72 101.7-22.79 139.5 15.04c43.67 43.67 43.67 114.7 .002 158.4C323.5 410.9 252.5 410.9 208.8 367.2z"/></svg>
